!!!OTL: IN EINEM THAL BEI ARMEN HIRTEN
!!!ARE: Europa, Mitteleuropa, Deutschland
!!!SCT: B0118A
!!!YEM: Copyright 1995, estate of Helmut Schaffrath.
**kern
*ICvox
*Ivox
*M4/4
*k[f#]
*G:
{8d
8e
8f#
=1
4.g
8b
4.b
8dd
=2
8dd
8cc
4a
8r}
{8d
8e
8f#
=3
4g
8b
8g
8dd
8cc
8a
8f#
=4
2g
8r}
{8d
8e
8f#
=5
4.g
8b
4.b
8dd
=6
8dd
8cc
4a
8r}
{8d
8e
8f#
=7
4g
8b
8g
8dd
8cc
8a
8f#
=8
2g
8r}
{8dd
8dd
8dd
=9
8cc
8b
8a
8g
8g
8f#
8e
8d
=10
8e
8g
4g
8r}
{8dd
8dd
8dd
=11
4cc
4a
4b
4g
=12
2dd
8r}
{8cc
8a
8f#
=13
4.g
8b
4.b
8dd
=14
8dd
8b
4e
8r}
{8b
8cc
8ee
=15
8ee
8dd
8b
8g
8dd
8cc
8a
8f#
=16
[2g
8g]
==
!!!AGN: Ballade, Romanze
!!!ONB: ESAC (Essen Associative Code) Database: BOEHME
!!!AMT: simple quadruple
!!!AIN: vox
!!!EED: Helmut Schaffrath
!!!EEV: 1.0
*-
